X:1
T:En ce vert moys
T:Claude Gervaise
T:Source : Livre VII de chansons nouvelles à 4---Paris---N.du Chemin---1550. Editor : André Vierendeels (26/01/18). Notes : Original clefs : G2, C2, C3, F3 Original note values have been halved Original note values have been quartered in3-beat measures Editorial accidentals above the stave
T:En ce vert moys
T:©
T:©
T:©
T:©
T:©
C:Claude Gervaise
Z:©
%%score [ 1 2 3 4 ]
L:1/8
Q:1/4=101
M:3/4
K:F
V:1 treble nm="Soprano" snm="S"
V:2 treble nm="Alto" snm="A"
V:3 treble-8 nm="Tenor" snm="T"
V:4 bass nm="Bass" snm="B"
V:1
 G2 G2 B2 | A4 c2 | B3 A G2 |[M:2/2] F2 f2 ffff | d2 f2 ed d2- |"^#" d2 c2 d4 | B2 BB BBGG | %7
w: En ce vert|moys, temps|o- * por-|tun, pour pren- dre plai- sir|ie voul- * * *|* droy- e,|pour pren- dre plai- sir ie ie|
w: Te- nir m'a-|my- e|nu- e à|nud, au io- ly bois soubz|la coul- * * *|* droy- e,|au io- ly bois soubz la coul-|
 c3 B A2 G2- |[M:2/4]"^#" G2 F2 |1 G4 :|2[M:2/2] G4 z2 G2 || G2 B2 A4 | A2 A2 A2 B2- | %13
w: voul- * * droy-||e,|e, là,|à go- go,|là- à go- go,|
w: droye- * * *||e.||||
 B2 c2 d2 c2- | cB B4 A2 | B2 B4 c2 | d2 z2 d4 | z2 d2 z2 A2- | A2 d2 d2 B2 | c4 d4 | G2 c2 d2 c2 | %21
w: _ la ser- vi-|* * roy- *|e, de quel|metz mot|mot mot|_ ny en quel|nom- bre:|ny en quel nom-|
w: ||||||||
 BA A4 G2 | A8 | z2 A2 A2 A2 | c2 c2 B2 B2 | A2 d2 d2 d2 | c2 d2 c2 B2 | A4 A2 AA | c2 c2 G2 B2- | %29
w: |bre,|mais beau luy-|re'au- roit le sou-|leil, si'el- le trou-|voit bon mon con|seil, si ie ne|la met- tois à|
w: ||||||||
 BA G4 F2 | GABc d4 | d2 dd f2 c2 | d3 c B2 A2- |"^#" AG G4 F2 | G4 d2 dd | f2 c2 d3 c | %36
w: _ _ l'om- *|bre, _ _ _ _|si ne la met- tois|à _ _ l'um-||bre, si ie ne|la met- tois _|
w: |||||||
 B2 A3 G G2- |"^#" G2 F2 G4- | G8 |] %39
w: _ à _ l'um-|* * bre.|_|
w: |||
V:2
 D2 D2 D2 | F4 G2 | G4 D2 |[M:2/2] D8 | B2 BB BBGG | A4 F2 D2 | DD G2 GF_ED | _E2 C2 FEDC | %8
w: En ce vert|moys, temps|o- por-|tun,|pour pren- dre plai- sir ie voul-|droy- e, pour|pren- dre plai- sir _ _ _|_ ie voul- * * *|
w: Te- nir m'a-|my- e|nu- e'à|nud,|au io- ly bois soubz la coul-|droy- e, au|io- ly bois soubz _ _ _|_ la coul- * * *|
[M:2/4] D4 |1"^-natural" B,4 :|2[M:2/2]"^-natural" B,2 D2 E2 E2 || DCDE F4 | z2 F2 F2 F2 | %13
w: droy-|e,|e, là, à go-|go, _ _ _ _|là- à go|
w: droy-|e,||||
"^b" G3 F/E/ D2 A2 |"^b" G2 E2 F4 | D4 G2 F2 | D2 A4 F2- | F2 z2 F4 | z2 F2 G2 G2 | A3 G F2 ED | %20
w: go, _ _ _ la|ser- vi- roy-|e, de quel|metz mot mot|_ mot|ny en quel|nom- * * * *|
w: |||||||
"^b" E4 D2 A2 | G2 F4 ED | E4 D2 F2 | F2 F2 C2 C2 | G4 G2 C2 | z2 A2 A2 A2 | A2 F2 G2 G2 | %27
w: * bre, ny|en quel _ _|nom- bre, mais|beau luy- re'au- roit|le sou- leil|si'el- le trou-|voit bon mon con-|
w: |||||||
 E2 E2 EEFG | A4 z4 | z4 A2 AA | B2 G2 FEDC | B,2 B2 BA/G/ A2 | D2 F2 FFFF |"^b" E2 C2 D4 | %34
w: seil, si ie ne la met-|tois,|si ie ne|la met- tois _ _ _|_ à l'um- * * *|bre si ie ne ma met-|tois à l'um-|
w: |||||||
 B,2 D2 DD F2- | FG A2 D2 DD |"^b" F3 E D2 E2 | D8 |"^-natural" B,8 |] %39
w: bre, si ie ne la|_ tois à l'um- bre, à|l'um- * * *||bre.|
w: |||||
V:3
 B2 B2 B2 | c4 e2 | d3 c B2 |[M:2/2] A4 f2 ff | fffd gfed | e4 d2 B2 | BBBB GG c2- | cBAG AF B2 | %8
w: En ce vert|moys, temps|op- * por-|tun, pour pren- dre|Plai- sir ie voul- droy- * * *|* e, pour|pren- dre plai- sir ie voul- droy-||
w: Te- nir m'a-|my- e|nu- e à|nud, au io- ly|bois soubz la coul- droy- * * *|* e, au|io- ly bois soubz la coul- droy-||
[M:2/4] A4 |1 G4 :|2[M:2/2] G2 G2 c2 c2 || BABc d2 A2 | A2 A2 d3 c | B2 G2 B2 AA | B2 B2 c4 | %15
w: |e,|e, là, à go-|go, _ _ _ _ là,|à go- go, ie|la ser- vi- roye, la|ser- vi- roy-|
w: |e,||||||
 B4 z4 | B2 c2 d2 z2 | d4 z2 d2- | d2 d2 B2 d2- | dc c4 B2- | B2 A2 B2 z A | B2 c2 BA d2- | %22
w: e,|de quel metz|mot mot|ny en quel nom-||* * bre, ny|en quel nom- * *|
w: |||||||
"^#" d2 c2 d4 | z2 c2 f2 f2 | e2 e2 d2 g2 | f4 f2 ff | f2 f2 e2 d2 | c8 | z2 e2 ee g2- | gfed c4 | %30
w: * * bre,|mais beau luy-|re'au- roit le sou-|leil, si'el- le trou-|voit bon mon con-|seil,|si ie- ne la|_ met- tois à l'um-|
w: ||||||||
 d2 d2 ddff | dd Bc de f2 | B2 d4 c2- | cBAG A4 | G2 B2 BBBB | AAAA Bc d2- | dc cB/A/ B2 c2 | %37
w: bre, si ne la met- tois|à l'um- * * * * *|||bre si ie ne la met-|tois, si ie ne la met- tois|_ à l'um- * * * *|
w: |||||||
"^b" A8 | G8 |] %39
w: |bre.|
w: ||
V:4
 G,2 G,2 G,2 | F,4 C,2 | G,4 G,2 |[M:2/2] D,4 z2 B,2 | B,B,B,B, G,2 B,2 | A,4 D,4 | %6
w: En ce vert|moys, temps|op- por-|tun, pour|pren- dre plai- sir ie voul-|droy- e,|
w: Te- nir m'a-|my- e|nu- e'à|nud, au|io- ly bois soubz la coul-|droy- e,|
 z2 _E,2 E,E,E,E, | C,2 F,3 D, G,2 |[M:2/4] D,4 |1 G,4 :|2[M:2/2] G,4 z2 C,2 || G,2 G,2 D,4 | %12
w: pour pren- dre plai- sir|ie voul- * *|droy-|e,|e, là|à go- go,|
w: au io- ly bois soubz|la coul- * *|droy-|e,|||
 z2 D,2 D,2 D,2 |"^b" E,3 D,/C,/ B,,2 F,2 | G,2 G,2 F,4 | B,,4 z4 | G,2 F,2 D,2 z2 | D,4 z2 D,2- | %18
w: là à go-|go, _ _ _ la|ser- vi- roy-|e,|de quel metz|mot mot|
w: ||||||
 D,2 D,2 G,2 G,2 | F,3 E, D,2 C,B,, | C,4 B,,2 F,2 | G,2 A,2 B,4 | A,4 D,4 | z2 F,2 F,2 F,2 | %24
w: _ mot ny en|quel _ _ nom- *|* bre, ny|en quel nom-|* bre,|mais beau luy-|
w: ||||||
 C,2 C,2 G,2 G,2 | D,2 z D, D,2 D,2 | A,2 B,2 C2 G,2 | A,8 | A,2 A,A, C2 G,2 | B,2 C2 A,4 | %30
w: re'au- roit le sou-|leil si'el- le trou-|voit bon mon con-|seil,|si ie ne la met-|tois à l'um-|
w: ||||||
 G,4 D,2 D,D, | G,2 G,2 F,4 | z2 D,2 D,D,F,F, |"^b" C,2 E,2 D,4 | G,4 z2 D,2 | D,D,F,F, B,,2 B,2- | %36
w: bre, si ie ne|la met- tois,|si ie ne la met-|tois à l'um-|bre si|ie ne la met- tois à|
w: ||||||
 B,A, F,2 G,2 C,2 | D,8 | G,8 |] %39
w: _ _ _ l'um- *||bre.|
w: |||

